static/images/ipfs-illustration-history.svg

<svg id="Layer_2" xmlns="http://www.w3.org/2000/svg" width="297.8" height="151.2" viewBox="0 0 297.8 151.2"><style>.st0{opacity:.19}.st1{fill:#e0f2f3;stroke:#6bcad0;stroke-miterlimit:10}.st1,.st2{stroke-width:2.5}.st2,.st3{stroke:#6bcad0;stroke-miterlimit:10}.st2,.st3{fill:#fff}.st3{stroke-width:2}.st4{fill:#ffe5ca;stroke:#f59223}.st4,.st5,.st6{stroke-miterlimit:10}.st5{stroke-linecap:round;opacity:.5;fill:#fff;stroke:#6bcad0}.st6{opacity:.3;fill:none;stroke:#f59223}.st7{fill:#f05234}.st8{fill:#fff}.st9{opacity:.5}.st10,.st11{fill:#fff;stroke:#083b54;stroke-width:2.5;stroke-miterlimit:10}.st11{fill:#d3d4db}.st12{fill:#083b54}.st13{fill:#e0f2f3;stroke:#6bcad0;stroke-width:1.9999;stroke-miterlimit:10}.st14{opacity:.5;fill:#6bcad0}.st15,.st16{opacity:.2;fill:#083b54}.st16{opacity:.3}.st17{opacity:.5}.st17,.st18,.st19{fill:#083b54}.st18{opacity:.85}.st19{opacity:.7}.st20{fill:#f59223}.st21{fill:#6bcad0}.st22{opacity:.2;fill:none;stroke:#f59223}.st22,.st23,.st24{stroke-miterlimit:10}.st23{stroke-linecap:round;fill:none;stroke:#6bcad0;stroke-width:2}.st24{fill:#f05234;stroke:#ef5434;stroke-width:.7758;stroke-linejoin:round}.st25,.st26,.st27{fill:none;stroke:#6bcad0;stroke-width:2.5;stroke-linecap:round;stroke-miterlimit:10}.st26,.st27{stroke-width:2.4797}.st27{opacity:.3}.st28{opacity:.6}.st28,.st29{fill:none;stroke:#6bcad0;stroke-width:3;stroke-linecap:round;stroke-linejoin:round;stroke-miterlimit:10}</style><g class="st0"><path class="st1" d="M173.1 86.8c0 .9.7 1.6 1.6 1.6h52.1v2c0 .4.4.8.8.8h14.1c.5 0 .8-.4.8-.8v-2h52c.9 0 1.6-.7 1.6-1.6v-78c0-.9-.7-1.6-1.6-1.6h-52.1v-2c0-.4-.4-.8-.8-.8h-14.1c-.5 0-.8.4-.8.8v2h-52c-.9 0-1.6.7-1.6 1.6v78z"/><path class="st2" d="M179.4 13.9H290v67.8H179.4z"/><path class="st3" d="M234.7 79.4S243.3 84 261 84h24.1V2s-6.3 2.5-24.1 2.5-26.3 8.4-26.3 8.4v66.5zm0 0s-8.6 4.6-26.3 4.6h-24.1V2s6.3 2.5 24.1 2.5 26.3 8.4 26.3 8.4v66.5z"/><circle class="st4" cx="259.9" cy="32.8" r="12"/><path class="st5" d="M191.1 10.5s32.3-1.3 37 7.3m-37-2.5s31.5-1.4 37 7.3m-37-2.3s24.5-3.3 37 6.3m-37.1-.8s21.7-4.5 37 4.1M191 31s20.8-4.8 37 2.2M191 36s19.6-3.6 37 1m-37 2.7s18.9-2.1 37 .9m-36.9 13H228m-36.9 4.8H228m-36.9 4.2c22.4.9 37 0 37 0m-37 3.9c16.2 1.3 37 0 37 0m-37 10.5c20 .9 37-1.8 37-1.8M191 71.6c16.4 1.2 37-.9 37-.9m-36.9-21.1s22.4-1.1 37 0m-37-5.1s18-1.9 37 0"/><ellipse transform="rotate(-36.014 259.884 32.763)" class="st6" cx="259.9" cy="32.8" rx="21.6" ry="3.5"/><path class="st7" d="M193.3 32.2V3.4c0-.3.5-.6 1.1-.6h4.5c.6 0 1.1.3 1.1.6v28.9l-3.3-2-3.4 1.9z"/></g><path class="st8" d="M294.6 22.2h-8.5v-5.4l-1.4.5c-.1 0-6.3 2.4-23.7 2.4-6.5 0-11.8 1.1-15.9 2.5h-1.3v-.7c0-1.1-.9-2-2.1-2h-14.1c-1.1 0-2.1.9-2.1 2v.7h-1.3c-3.6-1.2-8.1-2.2-13.6-2.4v-.2c0-.3-.5-.6-1.1-.6H205c-.6 0-1.1.3-1.1.6-14.1-.3-19.4-2.3-19.4-2.3l-1.4-.5v5.4h-8.5c-1.6 0-2.9 1.3-2.9 2.8v78c0 1.6 1.3 2.8 2.9 2.8h50.8v.7c0 1.1.9 2 2.1 2h14.1c1.1 0 2.1-.9 2.1-2v-.7h50.8c1.6 0 2.9-1.3 2.9-2.8V25.1c.1-1.6-1.2-2.9-2.8-2.9z"/><g class="st9"><path class="st1" d="M173.1 103c0 .9.7 1.6 1.6 1.6h52.1v2c0 .4.4.8.8.8h14.1c.5 0 .8-.4.8-.8v-2h52c.9 0 1.6-.7 1.6-1.6V25.1c0-.9-.7-1.6-1.6-1.6h-52.1v-2c0-.4-.4-.8-.8-.8h-14.1c-.5 0-.8.4-.8.8v2h-52c-.9 0-1.6.7-1.6 1.6V103z"/><path class="st2" d="M179.4 30.1H290v67.8H179.4z"/><path class="st3" d="M234.7 95.6s8.6 4.6 26.3 4.6h24.1v-82s-6.3 2.5-24.1 2.5-26.3 8.4-26.3 8.4v66.5zm0 0s-8.6 4.6-26.3 4.6h-24.1v-82s6.3 2.5 24.1 2.5 26.3 8.4 26.3 8.4v66.5z"/><circle class="st4" cx="259.9" cy="49" r="12"/><path class="st5" d="M191.1 26.8s32.3-1.3 37 7.3m-37-2.5s31.5-1.4 37 7.3m-37-2.3s24.5-3.3 37 6.3M191 42s21.7-4.5 37 4.1m-37 1.1s20.8-4.8 37 2.2m-37 2.8s19.6-3.6 37 1M191 56s18.9-2.1 37 .9m-36.9 13H228m-36.9 4.8H228m-36.9 4.1c22.4.9 37 0 37 0m-37 4c16.2 1.3 37 0 37 0m-37 10.4c20 .9 37-1.8 37-1.8M191 87.9c16.4 1.2 37-.9 37-.9m-36.9-21.1s22.4-1.1 37 0m-37-5.1s18-1.9 37 0"/><ellipse transform="rotate(-36.014 259.884 49.029)" class="st6" cx="259.9" cy="49" rx="21.6" ry="3.5"/><path class="st7" d="M204.1 48.5V19.6c0-.3.5-.6 1.1-.6h4.5c.6 0 1.1.3 1.1.6v28.9l-3.3-2-3.4 2z"/></g><path class="st1" d="M23.9 115.3h-5.2c2.6-6.2 1.6-39.2 1.6-39.2h5.2s.6 33.6-1.6 39.2zm106.5 0h-5.2c2.6-6.2.8-39.2.8-39.2h5.2s1.4 33.6-.8 39.2z"/><path class="st2" d="M76.9 116.8h-5.2c2.6-6.2 1.6-40.7 1.6-40.7h5.2s.7 35.2-1.6 40.7zm-34.7-6.2h5.2c-2.6-6.2-.8-34.5-.8-34.5h-5.2s-1.5 29 .8 34.5zm73.9-1.5h5.2c-2.6-6.2-.8-33-.8-33h-5.2s-1.4 27.4.8 33zm-63 5.4h5.2c-2.6-6.2-1.6-38.4-1.6-38.4h-5.2s-.6 32.8 1.6 38.4zm52.7.8h5.2c-2.6-6.2-1.6-39.2-1.6-39.2h-5.2s-.7 33.6 1.6 39.2z"/><path class="st1" d="M30.3 76.1h5.2V113h-5.2zm106.3 0h5.2v34.5h-5.2z"/><path class="st2" d="M62 76.1h5.2v35.3H62zm21.7 0h5.2v31.4h-5.2zm10.3 0h5.2V113H94z"/><path class="st10" d="M1.4 70.6v9.1c0 .7.7 1.4 1.6 1.4h155.3c.9 0 1.6-.6 1.6-1.4v-9.1"/><path class="st11" d="M145.8 51.6c0-.2-.7-.4-1.6-.4H15.7c-.9 0-1.6.2-1.6.4L1.4 70.2c0 .2.7.4 1.6.4h155.3c.9 0 1.6-.2 1.6-.4l-14.1-18.6z"/><path class="st12" d="M143 57.6c0-.1-1.5-.2-2.3-.2H19.3c-.8 0-1.5.1-1.5.2L14.3 65c0 .1.7.2 1.5.2h129.9c.8 0 1.5-.1 1.5-.2l-4.2-7.4z"/><path class="st1" d="M141.8 63.1V15c0-.9-.7-1.6-1.6-1.6H88.1v-2c0-.4-.4-.8-.8-.8H73.2c-.5 0-.8.4-.8.8v2h-52c-.9 0-1.6.7-1.6 1.6v48.1"/><path class="st2" d="M24.9 63.1V20h110.6v43.1"/><path class="st3" d="M29.8 63.1v-55s6.3 2.5 24.1 2.5S80.2 19 80.2 19v44.1m50.4 0v-55s-6.3 2.5-24.1 2.5S80.2 19 80.2 19v44.1"/><circle class="st4" cx="108.4" cy="38.9" r="12"/><path class="st5" d="M36.6 16.7s32.3-1.3 37 7.3m-37-2.5s31.5-1.4 37 7.3m-34-2.3s24.5-3.3 37 6.3m-37.1-.9s21.7-4.5 37 4.1m-37 1.1s20.8-4.8 37 2.2m-37 2.8s19.6-3.6 37 1m-37 2.8s18.9-2.1 37 .9m-36.9 13h37m-37-4.1s22.4-1.1 37 0m-37-5s18-1.9 37 0"/><ellipse transform="rotate(-36.014 108.415 38.905)" class="st6" cx="108.4" cy="38.9" rx="21.6" ry="3.5"/><path class="st7" d="M59 38.4V9.5c0-.3.5-.6 1.1-.6h4.5c.6 0 1.1.3 1.1.6v28.9l-3.3-2-3.4 2z"/><path class="st21" d="M234.2 150.2h.1c.6 0 1.1-.3 1.5-.7l8-10c.7-.9.6-2.1-.3-2.8-.9-.7-2.1-.6-2.8.3l-6.6 8.3-2.4-2.4c-.8-.8-2-.8-2.8 0-.8.8-.8 2 0 2.8l4 4c.3.3.8.5 1.3.5z"/><path class="st7" d="M81.3 143.2l4-4c.7-.7.7-1.8 0-2.5s-1.8-.7-2.5 0l-4 4-4-4c-.7-.7-1.8-.7-2.5 0s-.7 1.8 0 2.5l4 4-4 4c-.7.7-.7 1.8 0 2.5.3.3.8.5 1.2.5.4 0 .9-.2 1.2-.5l4-4 4 4c.3.3.8.5 1.2.5.4 0 .9-.2 1.2-.5.7-.7.7-1.8 0-2.5l-3.8-4z"/><path class="st1" d="M173.1 116.8c0 .9.7 1.6 1.6 1.6h52.1v2c0 .4.4.8.8.8h14.1c.5 0 .8-.4.8-.8v-2h52c.9 0 1.6-.7 1.6-1.6V38.9c0-.9-.7-1.6-1.6-1.6h-52.1v-2c0-.4-.4-.8-.8-.8h-14.1c-.5 0-.8.4-.8.8v2h-52c-.9 0-1.6.7-1.6 1.6v77.9z"/><path class="st2" d="M179.4 43.9H290v67.8H179.4z"/><path class="st3" d="M234.7 109.4s8.6 4.6 26.3 4.6h24.1V32s-6.3 2.5-24.1 2.5-26.3 8.4-26.3 8.4v66.5zm0 0s-8.6 4.6-26.3 4.6h-24.1V32s6.3 2.5 24.1 2.5 26.3 8.4 26.3 8.4v66.5z"/><circle class="st4" cx="259.9" cy="62.8" r="12"/><path class="st5" d="M191.1 40.6s32.3-1.3 37 7.3m-37-2.5s31.5-1.4 37 7.3m-37-2.3s24.5-3.3 37 6.3m-37.1-.9s21.7-4.5 37 4.1M191 61s20.8-4.8 37 2.2M191 66s19.6-3.6 37 1m-37 2.8s18.9-2.1 37 .9m-36.9 13H228m-36.9 4.8H228m-36.9 4.1c22.4.9 37 0 37 0m-37 4c16.2 1.3 37 0 37 0m-37 10.4c20 .9 37-1.8 37-1.8m-37.1-3.5c16.4 1.2 37-.9 37-.9m-36.9-21.1s22.4-1.1 37 0m-37-5.1s18-1.9 37 0"/><ellipse transform="rotate(-36.014 259.884 62.825)" class="st6" cx="259.9" cy="62.8" rx="21.6" ry="3.5"/><path class="st7" d="M213.4 62.3V33.4c0-.3.5-.6 1.1-.6h4.5c.6 0 1.1.3 1.1.6v28.9l-3.3-2-3.4 2z"/></svg>

<svg id="Layer_2" xmlns="http://www.w3.org/2000/svg" width="297.8" height="151.2" viewBox="0 0 297.8 151.2"><style>.st0{opacity:.19}.st1,.st2,.st3{fill:#e0f2f3;stroke:#6bcad0;stroke-width:2.5;stroke-miterlimit:10}.st2,.st3{fill:#fff}.st3{stroke-width:2}.st4{fill:#ffe5ca;stroke:#f59223}.st4,.st5,.st6{stroke-miterlimit:10}.st5{stroke-linecap:round;opacity:.5;fill:#fff;stroke:#6bcad0}.st6{opacity:.3;fill:none;stroke:#f59223}.st7{fill:#f05234}.st8{fill:#fff}.st9{opacity:.5}.st10,.st11{fill:#fff;stroke:#083b54;stroke-width:2.5;stroke-miterlimit:10}.st11{fill:#d3d4db}.st12{fill:#083b54}.st13{fill:#e0f2f3;stroke:#6bcad0;stroke-width:1.9999;stroke-miterlimit:10}.st14{opacity:.5;fill:#6bcad0}.st15,.st16{opacity:.2;fill:#083b54}.st16{opacity:.3}.st17,.st18,.st19{opacity:.5;fill:#083b54}.st18,.st19{opacity:.85}.st19{opacity:.7}.st20{fill:#f59223}.st21{fill:#6bcad0}.st22{opacity:.2;fill:none;stroke:#f59223}.st22,.st23,.st24{stroke-miterlimit:10}.st23{stroke-linecap:round;fill:none;stroke:#6bcad0;stroke-width:2}.st24{fill:#f05234;stroke:#ef5434;stroke-width:.7758;stroke-linejoin:round}.st25,.st26,.st27{fill:none;stroke:#6bcad0;stroke-width:2.5;stroke-linecap:round;stroke-miterlimit:10}.st26,.st27{stroke-width:2.4797}.st27{opacity:.3}.st28{opacity:.6}.st28,.st29{fill:none;stroke:#6bcad0;stroke-width:3;stroke-linecap:round;stroke-linejoin:round;stroke-miterlimit:10}</style><g class="st0"><path class="st1" d="M173.1 86.8c0 .9.7 1.6 1.6 1.6h52.1v2c0 .4.4.8.8.8h14.1c.5 0 .8-.4.8-.8v-2h52c.9 0 1.6-.7 1.6-1.6v-78c0-.9-.7-1.6-1.6-1.6h-52.1v-2c0-.4-.4-.8-.8-.8h-14.1c-.5 0-.8.4-.8.8v2h-52c-.9 0-1.6.7-1.6 1.6v78z"/><path class="st2" d="M179.4 13.9H290v67.8H179.4z"/><path class="st3" d="M234.7 79.4S243.3 84 261 84h24.1V2s-6.3 2.5-24.1 2.5-26.3 8.4-26.3 8.4v66.5zM234.7 79.4s-8.6 4.6-26.3 4.6h-24.1V2s6.3 2.5 24.1 2.5 26.3 8.4 26.3 8.4v66.5z"/><circle class="st4" cx="259.9" cy="32.8" r="12"/><path class="st5" d="M191.1 10.5s32.3-1.3 37 7.3M191.1 15.3s31.5-1.4 37 7.3M191.1 20.3s24.5-3.3 37 6.3M191 25.8s21.7-4.5 37 4.1M191 31s20.8-4.8 37 2.2M191 36s19.6-3.6 37 1M191 39.7s18.9-2.1 37 .9M191.1 53.6H228M191.1 58.4H228M191.1 62.6c22.4.9 37 0 37 0M191.1 66.5c16.2 1.3 37 0 37 0M191.1 77c20 .9 37-1.8 37-1.8M191 71.6c16.4 1.2 37-.9 37-.9M191.1 49.6s22.4-1.1 37 0M191.1 44.5s18-1.9 37 0"/><ellipse transform="rotate(-36.014 259.884 32.763)" class="st6" cx="259.9" cy="32.8" rx="21.6" ry="3.5"/><path class="st7" d="M193.3 32.2V3.4c0-.3.5-.6 1.1-.6h4.5c.6 0 1.1.3 1.1.6v28.9l-3.3-2-3.4 1.9z"/></g><path class="st8" d="M294.6 22.2h-8.5v-5.4l-1.4.5c-.1 0-6.3 2.4-23.7 2.4-6.5 0-11.8 1.1-15.9 2.5h-1.3v-.7c0-1.1-.9-2-2.1-2h-14.1c-1.1 0-2.1.9-2.1 2v.7h-1.3c-3.6-1.2-8.1-2.2-13.6-2.4v-.2c0-.3-.5-.6-1.1-.6H205c-.6 0-1.1.3-1.1.6-14.1-.3-19.4-2.3-19.4-2.3l-1.4-.5v5.4h-8.5c-1.6 0-2.9 1.3-2.9 2.8v78c0 1.6 1.3 2.8 2.9 2.8h50.8v.7c0 1.1.9 2 2.1 2h14.1c1.1 0 2.1-.9 2.1-2v-.7h50.8c1.6 0 2.9-1.3 2.9-2.8V25.1c.1-1.6-1.2-2.9-2.8-2.9z"/><g class="st9"><path class="st1" d="M173.1 103c0 .9.7 1.6 1.6 1.6h52.1v2c0 .4.4.8.8.8h14.1c.5 0 .8-.4.8-.8v-2h52c.9 0 1.6-.7 1.6-1.6V25.1c0-.9-.7-1.6-1.6-1.6h-52.1v-2c0-.4-.4-.8-.8-.8h-14.1c-.5 0-.8.4-.8.8v2h-52c-.9 0-1.6.7-1.6 1.6V103z"/><path class="st2" d="M179.4 30.1H290v67.8H179.4z"/><path class="st3" d="M234.7 95.6s8.6 4.6 26.3 4.6h24.1v-82s-6.3 2.5-24.1 2.5-26.3 8.4-26.3 8.4v66.5zM234.7 95.6s-8.6 4.6-26.3 4.6h-24.1v-82s6.3 2.5 24.1 2.5 26.3 8.4 26.3 8.4v66.5z"/><circle class="st4" cx="259.9" cy="49" r="12"/><path class="st5" d="M191.1 26.8s32.3-1.3 37 7.3M191.1 31.6s31.5-1.4 37 7.3M191.1 36.6s24.5-3.3 37 6.3M191 42s21.7-4.5 37 4.1M191 47.2s20.8-4.8 37 2.2M191 52.2s19.6-3.6 37 1M191 56s18.9-2.1 37 .9M191.1 69.9H228M191.1 74.7H228M191.1 78.8c22.4.9 37 0 37 0M191.1 82.8c16.2 1.3 37 0 37 0M191.1 93.2c20 .9 37-1.8 37-1.8M191 87.9c16.4 1.2 37-.9 37-.9M191.1 65.9s22.4-1.1 37 0M191.1 60.8s18-1.9 37 0"/><ellipse transform="rotate(-36.014 259.884 49.029)" class="st6" cx="259.9" cy="49" rx="21.6" ry="3.5"/><path class="st7" d="M204.1 48.5V19.6c0-.3.5-.6 1.1-.6h4.5c.6 0 1.1.3 1.1.6v28.9l-3.3-2-3.4 2z"/></g><path class="st1" d="M23.9 115.3h-5.2c2.6-6.2 1.6-39.2 1.6-39.2h5.2s.6 33.6-1.6 39.2zM130.4 115.3h-5.2c2.6-6.2.8-39.2.8-39.2h5.2s1.4 33.6-.8 39.2z"/><path class="st2" d="M76.9 116.8h-5.2c2.6-6.2 1.6-40.7 1.6-40.7h5.2s.7 35.2-1.6 40.7zM42.2 110.6h5.2c-2.6-6.2-.8-34.5-.8-34.5h-5.2s-1.5 29 .8 34.5zM116.1 109.1h5.2c-2.6-6.2-.8-33-.8-33h-5.2s-1.4 27.4.8 33zM53.1 114.5h5.2c-2.6-6.2-1.6-38.4-1.6-38.4h-5.2s-.6 32.8 1.6 38.4zM105.8 115.3h5.2c-2.6-6.2-1.6-39.2-1.6-39.2h-5.2s-.7 33.6 1.6 39.2z"/><path class="st1" d="M30.3 76.1h5.2V113h-5.2zM136.6 76.1h5.2v34.5h-5.2z"/><path class="st2" d="M62 76.1h5.2v35.3H62zM83.7 76.1h5.2v31.4h-5.2zM94 76.1h5.2V113H94z"/><path class="st10" d="M1.4 70.6v9.1c0 .7.7 1.4 1.6 1.4h155.3c.9 0 1.6-.6 1.6-1.4v-9.1"/><path class="st11" d="M145.8 51.6c0-.2-.7-.4-1.6-.4H15.7c-.9 0-1.6.2-1.6.4L1.4 70.2c0 .2.7.4 1.6.4h155.3c.9 0 1.6-.2 1.6-.4l-14.1-18.6z"/><path class="st12" d="M143 57.6c0-.1-1.5-.2-2.3-.2H19.3c-.8 0-1.5.1-1.5.2L14.3 65c0 .1.7.2 1.5.2h129.9c.8 0 1.5-.1 1.5-.2l-4.2-7.4z"/><path class="st1" d="M141.8 63.1V15c0-.9-.7-1.6-1.6-1.6H88.1v-2c0-.4-.4-.8-.8-.8H73.2c-.5 0-.8.4-.8.8v2h-52c-.9 0-1.6.7-1.6 1.6v48.1"/><path class="st2" d="M24.9 63.1V20h110.6v43.1"/><path class="st3" d="M29.8 63.1v-55s6.3 2.5 24.1 2.5S80.2 19 80.2 19v44.1M130.6 63.1v-55s-6.3 2.5-24.1 2.5S80.2 19 80.2 19v44.1"/><circle class="st4" cx="108.4" cy="38.9" r="12"/><path class="st5" d="M36.6 16.7s32.3-1.3 37 7.3M36.6 21.5s31.5-1.4 37 7.3M39.6 26.5s24.5-3.3 37 6.3M39.5 31.9s21.7-4.5 37 4.1M39.5 37.1s20.8-4.8 37 2.2M39.5 42.1s19.6-3.6 37 1M39.5 45.9s18.9-2.1 37 .9M39.6 59.8h37M39.6 55.7s22.4-1.1 37 0M39.6 50.7s18-1.9 37 0"/><ellipse transform="rotate(-36.014 108.415 38.905)" class="st6" cx="108.4" cy="38.9" rx="21.6" ry="3.5"/><path class="st7" d="M59 38.4V9.5c0-.3.5-.6 1.1-.6h4.5c.6 0 1.1.3 1.1.6v28.9l-3.3-2-3.4 2z"/><path class="st21" d="M234.2 150.2h.1c.6 0 1.1-.3 1.5-.7l8-10c.7-.9.6-2.1-.3-2.8-.9-.7-2.1-.6-2.8.3l-6.6 8.3-2.4-2.4c-.8-.8-2-.8-2.8 0-.8.8-.8 2 0 2.8l4 4c.3.3.8.5 1.3.5z"/><path class="st7" d="M81.3 143.2l4-4c.7-.7.7-1.8 0-2.5s-1.8-.7-2.5 0l-4 4-4-4c-.7-.7-1.8-.7-2.5 0s-.7 1.8 0 2.5l4 4-4 4c-.7.7-.7 1.8 0 2.5.3.3.8.5 1.2.5.4 0 .9-.2 1.2-.5l4-4 4 4c.3.3.8.5 1.2.5.4 0 .9-.2 1.2-.5.7-.7.7-1.8 0-2.5l-3.8-4z"/><g><path class="st1" d="M173.1 116.8c0 .9.7 1.6 1.6 1.6h52.1v2c0 .4.4.8.8.8h14.1c.5 0 .8-.4.8-.8v-2h52c.9 0 1.6-.7 1.6-1.6V38.9c0-.9-.7-1.6-1.6-1.6h-52.1v-2c0-.4-.4-.8-.8-.8h-14.1c-.5 0-.8.4-.8.8v2h-52c-.9 0-1.6.7-1.6 1.6v77.9z"/><path class="st2" d="M179.4 43.9H290v67.8H179.4z"/><path class="st3" d="M234.7 109.4s8.6 4.6 26.3 4.6h24.1V32s-6.3 2.5-24.1 2.5-26.3 8.4-26.3 8.4v66.5zM234.7 109.4s-8.6 4.6-26.3 4.6h-24.1V32s6.3 2.5 24.1 2.5 26.3 8.4 26.3 8.4v66.5z"/><circle class="st4" cx="259.9" cy="62.8" r="12"/><path class="st5" d="M191.1 40.6s32.3-1.3 37 7.3M191.1 45.4s31.5-1.4 37 7.3M191.1 50.4s24.5-3.3 37 6.3M191 55.8s21.7-4.5 37 4.1M191 61s20.8-4.8 37 2.2M191 66s19.6-3.6 37 1M191 69.8s18.9-2.1 37 .9M191.1 83.7H228M191.1 88.5H228M191.1 92.6c22.4.9 37 0 37 0M191.1 96.6c16.2 1.3 37 0 37 0M191.1 107c20 .9 37-1.8 37-1.8M191 101.7c16.4 1.2 37-.9 37-.9M191.1 79.7s22.4-1.1 37 0M191.1 74.6s18-1.9 37 0"/><ellipse transform="rotate(-36.014 259.884 62.825)" class="st6" cx="259.9" cy="62.8" rx="21.6" ry="3.5"/><path class="st7" d="M213.4 62.3V33.4c0-.3.5-.6 1.1-.6h4.5c.6 0 1.1.3 1.1.6v28.9l-3.3-2-3.4 2z"/></g></svg>
